brandFactory_export/2.Regular/Datos_2Regular.svg

<?xml version="1.0" encoding="UTF-8"?>
<svg width="24px" height="24px" viewBox="0 0 24 24" version="1.1" xmlns="http://www.w3.org/2000/svg" xmlns:xlink="http://www.w3.org/1999/xlink">
    <title>2.Regular/Datos_2Regular</title>
    <g id="Symbols" stroke="none" stroke-width="1" fill="none" fill-rule="evenodd">
        <g id="2.Regular/Datos_2Regular" fill="#5CB615" fill-rule="nonzero">
            <path d="M19.2672269,8.97142857 C19.0319328,9.35462185 18.3831933,9.8789916 17.2168067,10.2352941 C15.9327731,10.6252101 14.2252101,10.8369748 12.4134454,10.8369748 C10.6016807,10.8369748 8.89411765,10.6252101 7.61008403,10.2352941 C6.38655462,9.86218487 5.74789916,9.36470588 5.53277311,8.99495798 L5.53277311,5.31092437 C5.98319328,5.58655462 6.52773109,5.82184874 7.17983193,6.01680672 C8.59831933,6.44705882 10.4571429,6.68235294 12.4134454,6.68235294 C14.3697479,6.68235294 16.2285714,6.44369748 17.6470588,6.01680672 C18.2890756,5.82184874 18.8268908,5.59327731 19.2705882,5.32773109 L19.2705882,8.97142857 L19.2672269,8.97142857 Z M19.2672269,14.6453782 C19.0420168,15.0285714 18.4,15.5630252 17.2168067,15.9226891 C15.9327731,16.312605 14.2252101,16.5243697 12.4134454,16.5243697 C10.6016807,16.5243697 8.89411765,16.3092437 7.61008403,15.9193277 C6.38319328,15.5495798 5.74453782,15.0521008 5.53277311,14.6789916 L5.53277311,10.9647059 C5.99663866,11.2403361 6.54789916,11.4823529 7.17983193,11.6739496 C8.60168067,12.1042017 10.4605042,12.3394958 12.4168067,12.3394958 C14.3731092,12.3394958 16.2319328,12.1042017 17.6504202,11.6739496 C18.2655462,11.4890756 18.8067227,11.2436975 19.2705882,10.9613445 L19.2705882,14.6453782 L19.2672269,14.6453782 Z M19.2672269,19.9529412 C19.2672269,20.7260504 18.1445378,21.2268908 17.2067227,21.512605 C15.912605,21.902521 14.205042,22.1176471 12.3966387,22.1176471 C10.5915966,22.1176471 8.88403361,21.902521 7.59327731,21.5159664 C6.65210084,21.2302521 5.52941176,20.7294118 5.52941176,19.9563025 L5.52941176,16.6588235 C5.99327731,16.9344538 6.54453782,17.1764706 7.17647059,17.3647059 C8.59831933,17.794958 10.4571429,18.0336134 12.4134454,18.0336134 C14.3697479,18.0336134 16.2285714,17.7983193 17.6470588,17.3680672 C18.2588235,17.1831933 18.8033613,16.9378151 19.2672269,16.6554622 L19.2672269,19.9529412 Z M7.59327731,2.11092437 C8.88067227,1.7210084 10.5848739,1.50588235 12.3966387,1.50588235 C14.2117647,1.50588235 15.9159664,1.7210084 17.2033613,2.10756303 C18.0067227,2.34957983 18.9344538,2.75294118 19.1932773,3.34789916 C18.9848739,3.81176471 18.292437,4.24537815 17.2134454,4.57142857 C15.9294118,4.95798319 14.2252101,5.17310924 12.410084,5.17310924 C10.594958,5.17310924 8.8907563,4.95798319 7.60672269,4.57142857 C6.51764706,4.24201681 5.82521008,3.80168067 5.62352941,3.33445378 C5.83865546,2.87058824 6.51428571,2.43697479 7.59327731,2.11092437 Z M17.6369748,0.665546218 C16.2151261,0.235294118 14.3529412,0 12.3966387,0 C10.4436975,0 8.58151261,0.238655462 7.15966387,0.665546218 C5.44201681,1.18655462 4.42016807,1.97983193 4.1210084,3.02521008 C4.0605042,3.23361345 4.0302521,3.4487395 4.0302521,3.67058824 L4.0302521,19.9529412 C4.0302521,21.3176471 5.08235294,22.3260504 7.15966387,22.9579832 C8.58823529,23.3882353 10.4470588,23.6235294 12.3932773,23.6235294 C14.3428571,23.6235294 16.2016807,23.3882353 17.6336134,22.9579832 C19.707563,22.3294118 20.7630332,21.3176471 20.7630332,19.9563025 L20.7630332,3.67394958 C20.7663866,2.30588235 19.7142857,1.29411765 17.6369748,0.665546218 Z" id="Datos_2Regular"></path>
        </g>
    </g>
</svg>

<svg width="24" height="24" viewBox="0 0 24 24" xmlns="http://www.w3.org/2000/svg"><path d="M19.267 8.971c-.235.384-.884.908-2.05 1.264-1.284.39-2.992.602-4.804.602-1.811 0-3.519-.212-4.803-.602-1.223-.373-1.862-.87-2.077-1.24V5.311c.45.276.995.51 1.647.706 1.418.43 3.277.665 5.233.665 1.957 0 3.816-.238 5.234-.665.642-.195 1.18-.424 1.624-.69v3.644h-.004zm0 5.674c-.225.384-.867.918-2.05 1.278-1.284.39-2.992.601-4.804.601-1.811 0-3.519-.215-4.803-.605-1.227-.37-1.865-.867-2.077-1.24v-3.714a7.47 7.47 0 001.647.709c1.422.43 3.28.665 5.237.665 1.956 0 3.815-.235 5.233-.665a6.972 6.972 0 001.62-.713v3.684h-.003zm0 5.308c0 .773-1.122 1.274-2.06 1.56-1.294.39-3.002.605-4.81.605-1.805 0-3.513-.215-4.804-.602-.94-.286-2.064-.787-2.064-1.56V16.66a7.314 7.314 0 001.647.706c1.422.43 3.281.669 5.237.669 1.957 0 3.816-.236 5.234-.666a7.035 7.035 0 001.62-.713v3.298zM7.593 2.11c1.288-.39 2.992-.605 4.804-.605 1.815 0 3.519.215 4.806.602.804.242 1.731.645 1.99 1.24-.208.464-.9.897-1.98 1.223-1.284.387-2.988.602-4.803.602s-3.52-.215-4.803-.602c-1.09-.329-1.782-.77-1.983-1.237.215-.463.89-.897 1.97-1.223zM17.637.666C16.215.236 14.353 0 12.397 0 10.444 0 8.582.239 7.16.666c-1.718.52-2.74 1.314-3.039 2.36-.06.208-.09.423-.09.645v16.282c0 1.365 1.051 2.373 3.129 3.005 1.428.43 3.287.666 5.233.666 1.95 0 3.809-.236 5.24-.666 2.075-.629 3.13-1.64 3.13-3.002V3.674c.003-1.368-1.049-2.38-3.126-3.008z" fill="#5CB615" fill-rule="nonzero"/></svg>
